assets/icons/actions/refresh.svg

<svg viewBox="0 0 24 24" xmlns="http://www.w3.org/2000/svg">
<path d="M12 20C9.76667 20 7.875 19.225 6.325 17.675C4.775 16.125 4 14.2333 4 12C4 9.76667 4.775 7.875 6.325 6.325C7.875 4.775 9.76667 4 12 4C13.15 4 14.25 4.23767 15.3 4.713C16.35 5.18767 17.25 5.86667 18 6.75V5C18 4.71667 18.096 4.479 18.288 4.287C18.4793 4.09567 18.7167 4 19 4C19.2833 4 19.5207 4.09567 19.712 4.287C19.904 4.479 20 4.71667 20 5V10C20 10.2833 19.904 10.5207 19.712 10.712C19.5207 10.904 19.2833 11 19 11H14C13.7167 11 13.4793 10.904 13.288 10.712C13.096 10.5207 13 10.2833 13 10C13 9.71667 13.096 9.479 13.288 9.287C13.4793 9.09567 13.7167 9 14 9H17.2C16.6667 8.06667 15.9377 7.33333 15.013 6.8C14.0877 6.26667 13.0833 6 12 6C10.3333 6 8.91667 6.58333 7.75 7.75C6.58333 8.91667 6 10.3333 6 12C6 13.6667 6.58333 15.0833 7.75 16.25C8.91667 17.4167 10.3333 18 12 18C13.15 18 14.2127 17.6957 15.188 17.087C16.1627 16.479 16.8917 15.6667 17.375 14.65C17.4583 14.4667 17.596 14.3127 17.788 14.188C17.9793 14.0627 18.175 14 18.375 14C18.7583 14 19.046 14.1333 19.238 14.4C19.4293 14.6667 19.45 14.9667 19.3 15.3C18.6667 16.7167 17.6917 17.854 16.375 18.712C15.0583 19.5707 13.6 20 12 20Z" fill="inherit"/>
</svg>

<svg viewBox="0 0 24 24" xmlns="http://www.w3.org/2000/svg"><path d="M12 20c-2.2 0-4.1-.8-5.7-2.3A7.7 7.7 0 0 1 4 12c0-2.2.8-4.1 2.3-5.7A7.7 7.7 0 0 1 12 4a8 8 0 0 1 6 2.8V5c0-.3.1-.5.3-.7.2-.2.4-.3.7-.3.3 0 .5.1.7.3.2.2.3.4.3.7v5c0 .3-.1.5-.3.7a1 1 0 0 1-.7.3h-5a1 1 0 0 1-.7-.3 1 1 0 0 1-.3-.7c0-.3.1-.5.3-.7.2-.2.4-.3.7-.3h3.2c-.5-1-1.3-1.7-2.2-2.2a6 6 0 0 0-3-.8c-1.7 0-3 .6-4.3 1.8A5.8 5.8 0 0 0 6 12c0 1.7.6 3 1.8 4.3A5.8 5.8 0 0 0 12 18a6 6 0 0 0 5.4-3.3c0-.2.2-.4.4-.5l.6-.2c.4 0 .6.1.8.4.2.3.3.6.1.9a7.8 7.8 0 0 1-3 3.4A7.8 7.8 0 0 1 12 20Z" fill="inherit"/></svg>
